resources/haticons/SVG/headset.svg

<!-- Generated by IcoMoon.io -->
<svg version="1.1" xmlns="http://www.w3.org/2000/svg" width="24" height="24" viewBox="0 0 24 24">
<title>headset</title>
<path d="M12 0.984q3.75 0 6.375 2.648t2.625 6.352v7.031q0 1.219-0.891 2.109t-2.109 0.891h-3v-8.016h3.984v-2.016q0-2.906-2.039-4.945t-4.945-2.039-4.945 2.039-2.039 4.945v2.016h3.984v8.016h-3q-1.219 0-2.109-0.891t-0.891-2.109v-7.031q0-3.703 2.625-6.352t6.375-2.648z"></path>
</svg>

<svg xmlns="http://www.w3.org/2000/svg" width="24" height="24"><path d="M12 .984q3.75 0 6.375 2.648T21 9.984v7.031q0 1.219-.891 2.109T18 20.015h-3v-8.016h3.984V9.983q0-2.906-2.039-4.945T12 2.999 7.055 5.038 5.016 9.983v2.016H9v8.016H6q-1.219 0-2.109-.891T3 17.015V9.984q0-3.703 2.625-6.352T12 .984z"/></svg>
